X:1
T:CUCKOO'S NEST
M:4/4
L:1/8
K:F
 A2| dd d2 f3 d| c2 A2 A3 G| cc c2 e3 d| c2 G2 G2 AG| F/2 F3/2 E2 D3 e|\
 dA AB c2 BA| GF ED CD EG| F2 D2 D2 AA| dd dd de fd| cA A/2 A3/2 A2 GG|\
 cc cc cd ed| cG G/2 G3/2 G2 A3/2 G/2| F/2 F3/2 E/2E/2 E D/2 D3/2 dd|\
 dA AB c2 BA| GF ED CD EG| F2 D2 D2||
